X:1
T:Jesu nostra redemptio
T:William Byrd (c.1540-1623)
T:5. Versus
T:Jesu nostra redemptio
T:© Choral Public Domain Library 2010
T:© Choral Public Domain Library 2010
T:© Choral Public Domain Library 2010
T:© Choral Public Domain Library 2010
T:© Choral Public Domain Library 2010
T:© Choral Public Domain Library 2010
T:© Choral Public Domain Library 2010
C:William Byrd (c.1540-1623)
Z:5. Versus
Z:© Choral Public Domain Library 2010
%%score [ 1 2 3 4 ]
L:1/8
M:4/4
K:C
V:1 treble nm="Alto" snm="A."
V:2 treble nm="Alto" snm="A."
V:3 treble-8 transpose=-12 nm="Tenor" snm="T."
V:4 treble-8 transpose=-12 nm="Tenor" snm="T."
V:1
 [G,d]2 |[M:4/2] z16 | z8 G6 B2 | c4 G4 B4 d3 c | B4 z2 c2 c2 B2 A2 G2 | A6 A2 A8 | %6
w: ||JE- SU|no- stra re- dem- pti-|o, a- mor et de- si-|de- ri- um,|
 z2 F2 F2 G2 A6 c2 | B6 B2 A8 | z8 A4 B4 | ^c4 d4 B2 =c4 A2 | G6 E2 A4 D4 | D6 D2 !fermata!D8 || %12
w: De- us cre- a- tor|om- ni- um,|Ho- mo|in fi- ne tem- po-|rum, in fi- ne|tem- po- rum.|
 z8 z4 G4- | G2 E2 ^F4 G4 B2 c2- | c2 B2 A4 ^F4 G2 A2 | B3 A G2 G2 D4 z4 | z2 G2 B2 c2 d3 c B2 c2 | %17
w: Quæ|_ te vi- cit cle- men-|* ti- a, ut fer- res|no- stra cri- mi- na,|ut fer- res no- stra cri- mi-|
 A8 z2 c2 c4 | A4 F8 D4 | z4 E8 D4 | E8 z2 C2 E2 D2 | F4 E2 D4 ^C2 D2 D2 | C2 E2 F3 E E4 z4 | %23
w: na, cru- de-|lem mor- tem|pa- ti-|ens, ut nos a|mor- te tol- le- res, a|mor- te tol- le- res,|
 z2 A2 c2 B2 d4 B2 A2- | AG G4 ^F2 !fermata!G8 || z16 | D4 B,4 A,2 A4 ^F2 | %27
w: ut nos a mor- te tol-|* * * le- res.||In- fer- ni clau- stra|
 G3 G ^F4 z2 !courtesy!=F2 E2 A2 | ^G4 A2 c3 B A4 G2 | A8 z2 E2 F2 D2 | A6 F2 z2 d4 ^c2 | %31
w: pe- ne- trans, tu- os ca-|pti- vos re- * * di-|mens, vi- ctor tri-|um- pho no- bi-|
 d2 B4 A2 G4 z2 G2- | G2 F2 E4 z2 A2 ^c2 c2 | d6 A2 B3 A G2 E2 | ^F2 F2 G6 D2 =F3 F | E8 D6 D2 | %36
w: li, no- bi- li, no-|* bi- li, ad dex- tram|pa- tris re- si- dens, ad|dex- tram Pa- tris re- si-|dens, re- si-|
 !fermata!D8 || G4 C2 D2 E2 F2 G3 G | G8 D4 E3 F | G2 C2 z2 G2 A4 B4 | c4 B2 A4 A2 A4 | %41
w: dens.|I- psa te co- gat pi- e-|tas, ut ma- la|no- stra, ut ma- la|no- stra su- per- es,|
 z2 A2 _B4 A4 A2 G2- | G2 F2 z2 A2 c4 B2 B2 | A2 E2 A3 A G2 A4 ^G2 | A4 z2 E2 C2 D2 E2 F2 | %45
w: par- cen- do et vo-|* ti, par- cen- do et|vo- ti com- po- tes, com- po-|tes, nos tu- o vul- tu|
 E6 B,2 E4 z2 E2 | G4 E4 ^F2 G2 A3 G | F2 F2 E2 E4 DC B,4 | z4 z2 B2 G2 A2 B2 c2 | d3 c B2 A2 B8 | %50
w: sa- ti- es, nos|tu- o vul- tu sa- *|* ti- es, sa- ti- * es,|nos tu- o vul- tu|sa- * * ti- es,|
 A4 d6 D2 E2 G2 | E3 ^F G2 G3 =FED E2 ^F2 |"^w > w." !fermata!G8 |[M:6/2] E4 E4 E4 G8 G4 | %54
w: nos tu- o vul- tu|sa- ti- es, sa- * * * * ti-|es.|Tu e- sto no- strum|
 C4 c4 B4 A8 z4 | A4 A4 d4 c8 B4 | A8 G4 E4 C8 | A,4 B,8 C4 C4 D4 | E4 C4 G2 F2 E2 E4 ^F2 ^G3 G | %59
w: gau- * di- um,|qui es fu- tu- rus|præ- mi- um, præ-|mi- um, Sit no- stra|in te glo- ri- a, in te glo- ri-|
 A4 z4 z4 D4 B,4 C4- | C2 G2 G8 E4 G4 A4 | G8 D4 G2 A2 B2 c2 B4 | c8 z4 G4 c4 d4 | c8 B4 A8 ^G4 | %64
w: a, in te glo-|* ri- a per cun- cta|sem- per sæ- * * * cu-|la, per cun- cta|sem- per sæ- cu-|
 A4 E6 ^F2 G8 z4 | D4 G4 c4 B8 A4 | G8 ^F4"^w. > w" !fermata!G12 |[M:4/2] G16 | G8 E6 DC | %69
w: la, sæ- cu- la,|per cun- cta sem- per|sæ- cu- la.|A-|men. A- * *|
 B,2 A,2 B,4 C8 | z4 G6 FE D2 C2 | B,4 G,4 !fermata!G8 |] %72
w: * * * men.|A- * * * *|* * men.|
V:2
 [B,d]2 |[M:4/2] z16 | G6 B2 c4 G3 F | E2 C2 E4 D2 G4 ^F2 | G4 z2 A2 A2 G2 F2 D2 | %5
w: ||JE- SU no- stra re-|dem- pti- o, re- dem- pti-|o, a- mor et de- si-|
 F3 F E4 z2 F2 F2 G2 | A4 D4 F3 F E2 A2- | A2 ^G^F G4 z4 A4 | B4 ^c4 d4 D4 | A3 G ^F4 G4 A4 | %10
w: de- ri- um, De- us cre-|a- tor om- ni- um, om-|* ni- * um, Ho-|mo in fi- ne|tem- * * po- rum,|
 D4 E4 ^F2 A3 G G2- | G2 ^FE F2 F2 !fermata!G8 || z8 z4 B4- | B2 c2 A4 B4 G2 A2- | %14
w: ho- mo in fi- ne tem-|* * * * po- rum.|Quæ|_ te vi- cit cle- men-|
 A2 G2 ^F4 z2 A2 B2 c2 | d3 c B2 c2 A2 A2 G2 A2 | B3 A G2 A2 A2 G4 G2 | ^F4 z2 A2 A4 G2 c2 | %18
w: * ti- a, ut fer- res|no- stra cri- mi- na, ut fer- res|no- stra cri- mi- na, cri- mi-|na, cru- de- lem, cru-|
 c4 A4 z4 B4- | B4 ^G8 A4- | A4 ^G4 A8 | z8 z2 G2 B3 A | c4 B2 A4 ^G2 A2 F2 | E2 C2 E4 D4 d4- | %24
w: de- lem mor-|* tem pa-|* ti- ens,|ut nos a|mor- te tol- le- res, ut|nos a mor- te tol-|
 d2 B2 A4 !fermata!B8 || G4 E4 D2 G4 E2 | ^F3 F G4 E3 E D4 | z2 D2 D2 D2 A6 c2 | B3 B A4 z8 | %29
w: * le- * res.|In- fer- ni clau- stra|pe- ne- trans, pe- ne- trans,|tu- os ca- pti- vos|re- di- mens,|
 z2 E2 A2 E2 c4 A2 d2- | d2 ^c2 d4 F6 E2 | D8 z2 C2 G2 G2 | A6 E2 F4 E4 | D8 z2 B2 ^c2 c2 | %34
w: vi- ctor tri- um- pho no-|* bi- li, no- bi-|li, ad dex- tram|pa- tris re- si-|dens, ad dex- tram|
 d6 G2 B4 A4 | G4 G8 ^F4 | !fermata!G8 || z8 z4 D4 | E2 F2 G2 A2 B3 B c4 | C4 E6 ^F2 G4- | %40
w: Pa- tris re- si-|dens, re- si-|dens.|I-|psa te co- gat pi- e- tas,|ut ma- la no-|
 G4 F4 E6 E2 | ^F8 z2 A2 c4 | B2 A2 A2 E4 A4 ^G2 | A8 z4 z2 B2 | c4 B2 B2 A4 E2 A2- | %45
w: * stra su- per-|es, par- cen-|do et vo- ti com- po-|tes, par-|cen- do et vo- ti com-|
 A2 ^G^F G3 A G4 z4 | z2 B2 G2 A2 B2 c2 d3 c | B2 A4 ^G2 A4 =G2 D2 | E2 C2 B,4 z4 z2 E2 | %49
w: * * * * po- tes,|nos tu- o vul- tu sa- *|* * ti- es, vul- tu|sa- ti- es, nos|
 F2 D2 E2 ^F2 G3 =F D2 E2 | ^F4 F4 G4 G4 | A4 B4 c3 B A2 A2 | !fermata!B8 |[M:6/2] G4 G4 A4 B8 c4 | %54
w: tu- o vul- tu sa- * * ti-|es, nos tu- o|vul- tu sa- * * ti-|es.|Tu e- sto no- strum|
 A8 G4 ^F12 | z24 | d4 c4 B4 A8 E4 | A8 ^G4 A8 z4 | z8 z4 A4 A4 B4 | c4 G4 d2 c2 B4 G6 C2 | %60
w: gau- di- um,||qui es fu- tu- rus|præ- mi- um,|Sit no- stra|in te glo- ri- a, in te|
 c8 B4 c8 z4 | z24 | G4 c4 d4 c8 B4 | A8 ^G4 A4 z4 z4 | E4 A4 c4 B8 A4 | G8 ^F4 G8 z4 | %66
w: glo- ri- a||per cun- cta sem- per|sæ- cu- la,|per cun- cta sem- per|sæ- cu- la,|
 d6 c2 A4 !fermata!B12 |[M:4/2] c6 BA G2 F2 E2 D2 | E4 C4 G8- | G8 z4 c4- | c4 B2 A2 B8- | %71
w: sæ- cu- * la.|A- * * * * * *|* * men.|_ A-|* * * men.|
 !fermata!B16 |] %72
w: _|
V:3
 [Da]2 |[M:4/2] d6 e2 g4 d4 | e4 g3 f e4 z2 G2 | A3 B c2 c2 B3 B A4 | z2 d2 d2 f2 d4 c2 d2- | %5
w: |JE- SU no- stra|re- dem- pti- o, re-|dem- pti- o, re- dem- pti- o,|a- mor et de- si- de-|
 d2 ^cB c4 z2 d2 d2 e2 | f2 d2 z2 d2 A2 d2 c2 A2 | e6 e2 A8 | z2 e4 e2 ^f4 g4 | e4 z4 z4 A4 | %10
w: * ri- * um, De- us cre-|a- tor, De- us cre- a- tor|om- ni- um,|Ho- mo in fi-|ne, ho-|
 B4 ^c4 d4 B4 | A6 A2 !fermata!B8 || B6 c2 A4 B2 d2 | e3 d c4 d6 f2- | f2 d2 d4 z8 | %15
w: mo in fi- ne|tem- po- rum.|Quæ te vi- cit cle-|men- ti- a, cle- men-|* ti- a,|
 d4 e4 ^f4 g3 =f | e6 e2 d2 B4 e2 | d8 z4 z2 e2 | f4 c4 d8 | B6 c4 B2 A4 | c4 B4 A8 | z8 G4 d2 f2 | %22
w: ut fer- res no- stra|cri- mi- na, cri- mi-|na, cru-|de- lem mor-|tem pa- ti- ens,|pa- ti- ens,|ut nos a|
 e2 A2 d3 c B2 B2 A4 | c3 B A2 B2 A2 G4 ^F2- | F2 G2 A2 d2 !fermata!d8 || z8 B4 G4 | %26
w: mor- te tol- * * le- res,|tol- le- res, ut nos a mor-|* te tol- le- res.|In- fer-|
 A2 d4 B2 ^c3 c d4 | B3 B A4 z2 A2 A2 A2 | e8 A4 d3 d | ^c8 z8 | z2 e2 f2 d2 a4 A2 a2- | %31
w: ni clau- stra pe- ne- trans,|pe- ne- trans, tu- os ca-|pti- vos re- di-|mens,|vi- ctor tri- um- pho no-|
 ag g4 ^f2 g2 e4 d2 | ^c2 d4 c2 d4 z4 | z2 d2 ^f2 f2 g3 d e3 e | A2 A2 B2 B2 d6 A2 | %35
w: * * * bi- li, no- bi-|li, no- bi- li,|ad dex- tram pa- tris re- si-|dens, ad dex- tram Pa- tris|
 c3 B c4 B4 A4 | !fermata!B8 || G4 A2 B2 c2 A2 B3 B | c8 z4 c4 | e3 f g2 c2 c2 A2 G2 d2 | %40
w: re- si- dens, re- si-|dens.|I- psa te co- gat pi- e-|tas, ut|ma- la no- stra su- per- es, ut|
 e3 f d4 ^c2 d4 c2 | d8 d4 A2 c2 | G2 d2 A4 z2 A2 e4 | c2 c2 f4 e2 e2 d4 | c4 e6 d2 c2 d2 | %45
w: ma- la no- stra su- per-|es, su- * *|* per- es, par- cen-|do, par- cen- do et vo-|ti com- * * po-|
 B8 z2 B2 G2 A2 | B6 c2 d3 e f2 e2 | d2 c2 B2 e2 c2 d2 e2 f2 | g3 f e2 d2 e2 f2 e3 e | %49
w: tes, nos tu- o|vul- tu sa- * * *|* ti- es, nos tu- o vul- tu|sa- * * ti- es, sa- * ti-|
 d4 z4 z4 G4 | D4 D4 G4 E4 | A4 G4 c6 A2 | !fermata!d8 |[M:6/2] c4 B4 c4 d8 e4 | f8 d4 d8 z4 | %55
w: es, nos|tu- o vul- tu,|vul- tu sa- ti-|es.|Tu e- sto no- stra|gau- di- um,|
 f4 e4 d4 e6 c2 d2 e2 | f6 e2 d4 c4 e6 d2 | c4 B8 A4 A4 B4 | c4 A4 G3 G A2 c4 A2 E4 | %59
w: qui es fu- tu- rus _ _|præ- mi- * um, præ- *|mi- um, Sit no- stra|in te glo- ri- a, glo- ri- a,|
 A4 e4 ^f4 g4 d4 g2 =f2 | e4 d6 d2 c8 z4 | e4 g4 a4 g8 f4 | e8 d4 e6 g4 f2 | e6 e2 e4 A4 c4 B4 | %64
w: sit no- stra in te glo- ri-|a, glo- ri- a|per cun- cta sem- per|sæ- cu- la, sem- per|sæ- cu- la, per cun- cta|
 c8 c4 d8 d4 | B4 z4 c4 d4 g4 d4 | B4 A6 d2 !fermata!d12 |[M:4/2] e16 | c16 | z8 g6 fe | %70
w: sem- per sæ- cu-|la, per cun- cta sem-|per sæ- cu- la.|A-|men.|A- * *|
 d2 e2 d2 c2 d4 B4 | !fermata!d16 |] %72
w: |men.|
V:4
 [Cg]2 |[M:4/2] z8 G6 B2 | c4 G4 c4 e3 d | c6 C2 G4 D4 | G4 z2 F2 F2 G2 A2 _B2 | A6 A2 D8 | %6
w: |JE- SU|no- stra re- dem- pti-|o, re- dem- pti-|o, a- mor et de- si-|de- ri- um,|
 z2 D2 D2 G2 F2 D2 A3 A | E4 e6 e2 ^f4 | g4 e4 d3 c B2 G2 | A4 D4 E4 ^F4 | G4 E4 D8- | %11
w: De- us cre- a- tor om- ni-|um, Ho- mo in|fi- ne tem- * * po-|rum, ho- mo in|fi- ne tem-|
 D4 D4 !fermata!G8 || G6 E2 ^F4 G4 | E2 A4 A2 G4 G2 F2- | F2 G2 D4 d4 B2 A2 | G6 C2 D4 E2 F2 | %16
w: * po- rum.|Quæ te vi- cit|cle- men- ti- a, cle- men-|* ti- a, ut fer- res|no- stra, ut fer- res|
 G3 F E2 A2 ^F2 G4 C2 | D4 z2 D2 F4 C4 | F8 D4 G4- | G2 F2 E4 E4 F4 | E8 z2 A2 c2 B2 | %21
w: no- stra cri- mi- na, cri- mi-|na, cru- de- lem|mor- tem pa-|* ti- ens, pa- ti-|ens, ut nos a|
 A2 D2 G3 F E2 E2 D4 | z8 E4 F2 D2 | A6 G2 ^F2 G2 D4 | D6 D2 !fermata!G8 || z8 G4 E4 | %26
w: mor- te tol- * * le- res,|ut nos a|mor- te tol- le- res,|tol- le- res.|In- fer-|
 D4 G3 E A3 A D4 | G3 G D8 z2 A2 | E2 E2 A6 c2 B3 B | A8 z2 A2 d2 B2 | A4 D4 z4 z2 A2 | %31
w: ni clau- stra pe- ne- trans,|pe- ne- trans, tu-|os ca- pti- vos re- di-|mens, vi- ctor tri-|um- pho, vi-|
 B2 G2 d4 G2 c4 B2 | A8 z2 D2 A2 A2 | B3 c d3 d G4 E3 E | D2 D2 G8 D4 | E4 C4 D6 D2 | %36
w: ctor tri- um- pho no- bi-|li, ad dex- tram|pa- tris re- si- dens, re- si-|dens, ad dex- tram|Pa- tris re- si-|
 !fermata!G8 || z8 z4 G4 | C2 D2 E2 F2 G3 G C4 | z4 c4 c4 B4 | A4 D4 A6 A2 | D4 z2 d2 f4 e2 e2 | %42
w: dens.|I-|psa te co- gat pi- e- tas,|ut ma- la|no- stra su- per-|es, par- cen- do et|
 d4 c4 e6 E2 | A4 z2 A2 c4 B2 B2 | A4 ^G4 A6 D2 | E16 | E8 D8- | D4 E4 F4 G4 | E3 F G6 F2 G2 A2 | %49
w: vo- ti com- po-|tes, par- cen- do et|vo- ti com- po-|tes,|nos tu-|* o vul- tu|sa- * * * * ti-|
 D4 z2 A2 G2 A2 B2 c2 | d3 c B2 A2 B4 c4- | c4 B4 A6 A2 | !fermata!G8 |[M:6/2] C4 E4 A4 G8 C4 | %54
w: es, nos tu- o vul- tu|sa- * * ti- es, vul-|* tu sa- ti-|es.|Tu e- sto no- stra|
 F8 G4 D8 z4 | d4 c4 B4 A8 G4 | F8 G4 A8 A4- | A2 A2 E8 z8 z4 | A4 A4 B4 c4 A4 e2 d2 | %59
w: gau- di- um,|qui es fu- tu- rus|præ- mi- um, præ-|* mi- um,|Sit no- stra in te glo- ri-|
 c8 B2 A2 G8 E4 | C4 G6 G2 C8 z4 | c4 e4 f4 e8 d4 | c8 B4 c8 G4 | A4 E8 F4 E4 E4 | A8 A4 G8 ^F4 | %65
w: a, glo- ri- a, in|te glo- ri- a|per cun- cta sem- per|sæ- cul- a, sæ-|cu- la, per cun- cta|sem- per sæ- cu-|
 G2 A2 B2 c2 A4 G8 ^F4 | G4 D6 D2 !fermata!G12 | %67
w: la, sæ- * * cu- la, sem-|per sæ- cu- la.|
[M:4/2] C6 D2 E4"^Jesus, our redemption, love and desire,God, Creator of all things, becomes man in the fullness of time.What mercy made thee bear our crimes,to suffer a cruel death that we might be saved from death!Descending into Hell’s prison, freeing thy captives,Thy noble triumph won, dwelling at the Father’s right hand.Let pity compel thee to overcome our evils,granting pardon, fulfil and satisfy us with thy face.Be our joy, who will be our future prize;let all our glory be in Thee forever, throughout all ages." C4 | %68
w: A- * * *|
 C8 c6 BA | G2 F2 E2 D2 E4 C4 | G16- | !fermata!G16 |] %72
w: men. A- * *||men.|_|

